dist/flags/l/132.svg

<svg width="32" height="24" viewBox="0 0 32 24" fill="none" xmlns="http://www.w3.org/2000/svg">
<mask id="mask0" mask-type="alpha" maskUnits="userSpaceOnUse" x="0" y="0" width="32" height="24">
<rect width="32" height="24" fill="white"/>
</mask>
<g mask="url(#mask0)">
<path fill-rule="evenodd" clip-rule="evenodd" d="M0 0V24H32V0H0Z" fill="#4141DB"/>
<mask id="mask1" mask-type="alpha" maskUnits="userSpaceOnUse" x="0" y="0" width="32" height="24">
<path fill-rule="evenodd" clip-rule="evenodd" d="M0 0V24H32V0H0Z" fill="white"/>
</mask>
<g mask="url(#mask1)">
<path d="M0 13H-1V14V16V17H0H32H33V16V14V13H32H0Z" fill="#F90000" stroke="#F7FCFF" stroke-width="2"/>
<g filter="url(#filter0_d)">
<path fill-rule="evenodd" clip-rule="evenodd" d="M9.79587 10.2595L10.5217 9.7506L11.2241 10.2595L11.0057 9.35387L11.5698 8.77996H10.8519L10.5207 8.04089L10.2383 8.77996H9.39622L10.0409 9.35387L9.79587 10.2595ZM12.7959 11.8595L13.5217 11.3506L14.2241 11.8595L14.0057 10.9539L14.5698 10.38H13.8519L13.5207 9.64089L13.2383 10.38H12.3962L13.0409 10.9539L12.7959 11.8595ZM15.9217 13.7506L15.1959 14.2595L15.4409 13.3539L14.7962 12.78H15.6383L15.9207 12.0409L16.2519 12.78H16.9698L16.4057 13.3539L16.6241 14.2595L15.9217 13.7506ZM15.1959 18.2595L15.9217 17.7506L16.6241 18.2595L16.4057 17.3539L16.9698 16.78H16.2519L15.9207 16.0409L15.6383 16.78H14.7962L15.4409 17.3539L15.1959 18.2595ZM13.5217 20.1506L12.7959 20.6595L13.0409 19.7539L12.3962 19.18H13.2383L13.5207 18.4409L13.8519 19.18H14.5698L14.0057 19.7539L14.2241 20.6595L13.5217 20.1506ZM9.79587 22.2595L10.5217 21.7506L11.2241 22.2595L11.0057 21.3539L11.5698 20.78H10.8519L10.5207 20.0409L10.2383 20.78H9.39622L10.0409 21.3539L9.79587 22.2595ZM7.52175 20.1506L6.79587 20.6595L7.04093 19.7539L6.39622 19.18H7.2383L7.52073 18.4409L7.8519 19.18H8.56976L8.00572 19.7539L8.22408 20.6595L7.52175 20.1506ZM4.39587 18.2595L5.12175 17.7506L5.82408 18.2595L5.60572 17.3539L6.16976 16.78H5.4519L5.12073 16.0409L4.8383 16.78H3.99622L4.64093 17.3539L4.39587 18.2595ZM5.12175 13.7506L4.39587 14.2595L4.64093 13.3539L3.99622 12.78H4.8383L5.12073 12.0409L5.4519 12.78H6.16976L5.60572 13.3539L5.82408 14.2595L5.12175 13.7506ZM6.79587 11.8595L7.52175 11.3506L8.22408 11.8595L8.00572 10.9539L8.56976 10.38H7.8519L7.52073 9.64089L7.2383 10.38H6.39622L7.04093 10.9539L6.79587 11.8595Z" fill="#FFDE00"/>
</g>
</g>
</g>
<defs>
<filter id="filter0_d" x="-0.00378418" y="4.04089" width="20.9735" height="22.2186" filterUnits="userSpaceOnUse" color-interpolation-filters="sRGB">
<feFlood flood-opacity="0" result="BackgroundImageFix"/>
<feColorMatrix in="SourceAlpha" type="matrix" values="0 0 0 0 0 0 0 0 0 0 0 0 0 0 0 0 0 0 127 0"/>
<feOffset/>
<feGaussianBlur stdDeviation="2"/>
<feColorMatrix type="matrix" values="0 0 0 0 0 0 0 0 0 0 0 0 0 0 0 0 0 0 0.24 0"/>
<feBlend mode="normal" in2="BackgroundImageFix" result="effect1_dropShadow"/>
<feBlend mode="normal" in="SourceGraphic" in2="effect1_dropShadow" result="shape"/>
</filter>
</defs>
</svg>

<svg width="32" height="24" fill="none" xmlns="http://www.w3.org/2000/svg">
  <mask id="a" maskUnits="userSpaceOnUse" x="0" y="0" width="32" height="24">
    <path fill="#fff" d="M0 0h32v24H0z"/>
  </mask>
  <g mask="url(#a)">
    <path fill-rule="evenodd" clip-rule="evenodd" d="M0 0v24h32V0H0z" fill="#4141DB"/>
    <mask id="b" maskUnits="userSpaceOnUse" x="0" y="0" width="32" height="24">
      <path fill-rule="evenodd" clip-rule="evenodd" d="M0 0v24h32V0H0z" fill="#fff"/>
    </mask>
    <g mask="url(#b)">
      <path d="M0 13h-1v4h34v-4H0z" fill="#F90000" stroke="#F7FCFF" stroke-width="2"/>
      <g filter="url(#CV_-_Cabo_Verde__filter0_d)">
        <path fill-rule="evenodd" clip-rule="evenodd" d="M9.796 10.26l.726-.51.702.51-.218-.906.564-.574h-.718l-.331-.74-.283.74h-.842l.645.574-.245.905zm3 1.6l.726-.51.702.51-.218-.906.564-.574h-.718l-.331-.74-.283.74h-.842l.645.574-.245.905zm3.126 1.89l-.726.51.245-.906-.645-.574h.842l.283-.74.33.74h.719l-.564.574.218.905-.702-.508zm-.726 4.51l.726-.51.702.51-.218-.906.564-.574h-.718l-.331-.74-.283.74h-.842l.645.574-.245.905zm-1.674 1.89l-.726.51.245-.906-.645-.574h.842l.283-.74.33.74h.719l-.564.574.218.905-.702-.508zm-3.726 2.11l.726-.51.702.51-.218-.906.564-.574h-.718l-.331-.74-.283.74h-.842l.645.574-.245.905zm-2.274-2.11l-.726.51.245-.906-.645-.574h.842l.283-.74.33.74h.719l-.564.574.218.905-.702-.508zm-3.126-1.89l.726-.51.702.51-.218-.906.564-.574h-.718l-.331-.74-.283.74h-.842l.645.574-.245.905zm.726-4.51l-.726.51.245-.906-.645-.574h.842l.283-.74.33.74h.719l-.564.574.218.905-.702-.508zm1.674-1.89l.726-.51.702.51-.218-.906.564-.574h-.718l-.331-.74-.283.74h-.842l.645.574-.245.905z" fill="#FFDE00"/>
      </g>
    </g>
  </g>
  <defs>
    <filter id="CV_-_Cabo_Verde__filter0_d" x="-.004" y="4.041" width="20.974" height="22.219" filterUnits="userSpaceOnUse" color-interpolation-filters="sRGB">
      <feFlood flood-opacity="0" result="BackgroundImageFix"/>
      <feColorMatrix in="SourceAlpha" values="0 0 0 0 0 0 0 0 0 0 0 0 0 0 0 0 0 0 127 0"/>
      <feOffset/>
      <feGaussianBlur stdDeviation="2"/>
      <feColorMatrix values="0 0 0 0 0 0 0 0 0 0 0 0 0 0 0 0 0 0 0.24 0"/>
      <feBlend in2="BackgroundImageFix" result="effect1_dropShadow"/>
      <feBlend in="SourceGraphic" in2="effect1_dropShadow" result="shape"/>
    </filter>
  </defs>
</svg>
